lib/brands/icons/google-display-and-video-ads.svg

<svg xmlns="http://www.w3.org/2000/svg" fill="none" aria-hidden="true" viewBox="0 0 48 48"><g id="google-display-and-video-ads-Icon"><g id="Group"><path id="Vector" fill="#81C995" d="M33.4046 20.0751C35.5175 18.7925 38.2694 19.4657 39.5505 21.5785C40.833 23.6914 40.1598 26.4433 38.047 27.7244C37.9906 27.7585 37.9343 27.7911 37.8779 27.8223L14.5682 41.2453C12.4553 42.5279 9.70337 41.8547 8.42082 39.7418C7.13827 37.629 7.81142 34.877 9.92429 33.5945C9.98063 33.5604 10.037 33.5278 10.0933 33.4966L33.4046 20.0751Z"/><path id="Vector_2" fill="#34A853" d="M16.6557 10.5026C16.6661 8.03689 14.6748 6.02781 12.209 6.01743C11.8917 6.01595 11.5759 6.04857 11.2646 6.1138C9.17541 6.62682 7.71493 8.51284 7.74458 10.6657V37.3265L16.6468 37.4881L16.6557 10.5026Z"/><path id="Vector_3" fill="#5BB974" d="M33.5049 27.8386C35.6593 28.9551 38.3104 28.2404 39.6122 26.1913C40.8636 24.0858 40.1712 21.3635 38.0657 20.1121C38.0494 20.1032 38.0346 20.0943 38.0183 20.084L14.5528 6.6372C12.4637 5.37541 9.74584 6.0456 8.48257 8.13475C8.45143 8.18664 8.42029 8.24002 8.39064 8.2934C7.15109 10.4152 7.86576 13.1419 9.98752 14.3829C10.0024 14.3918 10.0172 14.3992 10.032 14.4081L33.5049 27.8386Z"/><path id="Vector_4" fill="#81C995" d="M37.8646 27.8697L16.6484 39.7211V29.5407L33.4832 20.1537C35.7147 18.9171 38.5274 19.7237 39.764 21.9566C39.8796 22.1642 39.9775 22.3807 40.0591 22.6031C40.6907 24.6567 39.7684 26.8704 37.8646 27.8697Z"/><path id="Vector_5" fill="#1E8E3E" d="M12.205 42C14.6633 42 16.6561 40.0072 16.6561 37.5489C16.6561 35.0906 14.6633 33.0978 12.205 33.0978C9.74674 33.0978 7.75391 35.0906 7.75391 37.5489C7.75391 40.0072 9.74674 42 12.205 42Z"/></g></g></svg>

<svg xmlns="http://www.w3.org/2000/svg" fill="none" aria-hidden="true" viewBox="0 0 48 48"><path fill="#81C995" d="M33.404 20.075a4.473 4.473 0 0 1 6.146 1.503 4.473 4.473 0 0 1-1.672 6.244l-23.31 13.423a4.475 4.475 0 1 1-4.475-7.748l23.311-13.422Z"/><path fill="#34A853" d="M16.655 10.503a4.467 4.467 0 0 0-5.39-4.39 4.622 4.622 0 0 0-3.52 4.553v26.66l8.902.162.009-26.985Z"/><path fill="#5BB974" d="M33.505 27.839a4.683 4.683 0 0 0 6.107-1.648 4.436 4.436 0 0 0-1.593-6.107L14.553 6.637a4.423 4.423 0 0 0-6.162 1.656 4.453 4.453 0 0 0 1.597 6.09l.044.025 23.473 13.43Z"/><path fill="#81C995" d="M37.864 27.87 16.648 39.72V29.54l16.835-9.387a4.62 4.62 0 0 1 6.576 2.45 4.466 4.466 0 0 1-2.195 5.266Z"/><path fill="#1E8E3E" d="M12.204 42a4.451 4.451 0 1 0 0-8.902 4.451 4.451 0 0 0 0 8.902Z"/></svg>
